X: 12
T:Honey Harbour
% Nottingham Music Database
S:via PR
M:4/4
L:1/4
K:A
"A"e2 e3/2f/2|ec AE|"A"C2 E3/2F/2|EC A,C|"Bm"D2 B3/2A/2|"E7"GE FG|"A"A2 "D"GF|\
"A"E2 "E7""b"Ac|
"A"e2 e3/2f/2|ec AE|"A"C2 E3/2F/2|EC A,C|"Bm"D2 B3/2A/2|"E7"GE FG|"A"A4-|\
"A"A2 "E7"cd||
"A"e2 ce|a2 e3/2f/2|"Bm"ed dc|d2 Bc|"E7"d2 Bd|"E7"g2 f3/2g/2|"A"fe e^d|\
"E7"e2 cd|
"A"e2 ce|"F#m"a2 e3/2f/2|"Bm"ed dc|d2 Bc|"E7"d2 gf|e^d =dB|"A"A4-|A4||<end>
<start>
